assets/icons/icon-instagram.svg

<svg width="34" height="34" viewBox="0 0 34 34" fill="none" xmlns="http://www.w3.org/2000/svg">
<path fill-rule="evenodd" clip-rule="evenodd" d="M10.4678 1.49489C12.1126 1.41917 12.6371 1.40234 16.827 1.40234C21.0169 1.40234 21.5413 1.42057 23.1848 1.49489C24.8282 1.56921 25.95 1.83143 26.9316 2.21144C27.9594 2.59986 28.8919 3.20704 29.6632 3.9923C30.4484 4.76213 31.0542 5.69322 31.4412 6.72247C31.8226 7.70405 32.0834 8.82584 32.1592 10.4665C32.2349 12.1141 32.2517 12.6386 32.2517 16.8271C32.2517 21.017 32.2335 21.5414 32.1592 23.1863C32.0848 24.8269 31.8226 25.9487 31.4412 26.9303C31.0542 27.9596 30.4474 28.8923 29.6632 29.6632C28.8919 30.4485 27.9594 31.0543 26.9316 31.4413C25.95 31.8227 24.8282 32.0835 23.1876 32.1593C21.5413 32.235 21.0169 32.2518 16.827 32.2518C12.6371 32.2518 12.1126 32.2336 10.4678 32.1593C8.82716 32.0849 7.70536 31.8227 6.72378 31.4413C5.69442 31.0542 4.76179 30.4475 3.9908 29.6632C3.20608 28.893 2.59881 27.9608 2.21135 26.9317C1.83134 25.9501 1.57052 24.8283 1.4948 23.1877C1.41908 21.54 1.40225 21.0156 1.40225 16.8271C1.40225 12.6372 1.42048 12.1127 1.4948 10.4693C1.56912 8.82584 1.83134 7.70405 2.21135 6.72247C2.59938 5.69334 3.20711 4.76117 3.9922 3.99089C4.76209 3.20634 5.69379 2.59908 6.72238 2.21144C7.70395 1.83143 8.82575 1.57061 10.4664 1.49489H10.4678ZM23.06 4.27134C21.4334 4.19702 20.9454 4.1816 16.827 4.1816C12.7086 4.1816 12.2206 4.19702 10.594 4.27134C9.08938 4.34005 8.27327 4.59106 7.72919 4.80279C7.00984 5.08324 6.49522 5.41558 5.95535 5.95544C5.44359 6.45331 5.04975 7.05941 4.8027 7.72929C4.59096 8.27336 4.33996 9.08947 4.27125 10.5941C4.19693 12.2207 4.18151 12.7087 4.18151 16.8271C4.18151 20.9455 4.19693 21.4335 4.27125 23.0601C4.33996 24.5647 4.59096 25.3808 4.8027 25.9249C5.0495 26.5937 5.44353 27.2009 5.95535 27.6987C6.45315 28.2105 7.06032 28.6046 7.72919 28.8513C8.27327 29.0631 9.08938 29.3141 10.594 29.3828C12.2206 29.4571 12.7072 29.4725 16.827 29.4725C20.9468 29.4725 21.4334 29.4571 23.06 29.3828C24.5646 29.3141 25.3807 29.0631 25.9248 28.8513C26.6441 28.5709 27.1587 28.2386 27.6986 27.6987C28.2104 27.2009 28.6045 26.5937 28.8513 25.9249C29.063 25.3808 29.314 24.5647 29.3827 23.0601C29.457 21.4335 29.4725 20.9455 29.4725 16.8271C29.4725 12.7087 29.457 12.2207 29.3827 10.5941C29.314 9.08947 29.063 8.27336 28.8513 7.72929C28.5708 7.00993 28.2385 6.49531 27.6986 5.95544C27.2007 5.44372 26.5946 5.04989 25.9248 4.80279C25.3807 4.59106 24.5646 4.34005 23.06 4.27134ZM14.8568 21.5821C15.9571 22.0401 17.1823 22.1019 18.3231 21.757C19.4639 21.412 20.4495 20.6817 21.1117 19.6908C21.7739 18.6999 22.0715 17.5098 21.9537 16.3238C21.8359 15.1378 21.31 14.0295 20.4658 13.1882C19.9277 12.6504 19.277 12.2387 18.5606 11.9825C17.8442 11.7264 17.08 11.6322 16.3229 11.7069C15.5657 11.7816 14.8346 12.0232 14.1821 12.4144C13.5295 12.8055 12.9718 13.3365 12.5491 13.9691C12.1264 14.6016 11.8493 15.3201 11.7375 16.0726C11.6258 16.8252 11.6823 17.5931 11.903 18.3212C12.1237 19.0493 12.5031 19.7194 13.0139 20.2832C13.5246 20.8471 14.154 21.2907 14.8568 21.5821ZM11.2208 11.2209C11.957 10.4847 12.831 9.90067 13.7929 9.50223C14.7548 9.1038 15.7858 8.89872 16.827 8.89872C17.8681 8.89872 18.8991 9.1038 19.861 9.50223C20.8229 9.90067 21.697 10.4847 22.4332 11.2209C23.1694 11.9571 23.7534 12.8311 24.1518 13.793C24.5503 14.7549 24.7553 15.7859 24.7553 16.8271C24.7553 17.8682 24.5503 18.8992 24.1518 19.8611C23.7534 20.823 23.1694 21.697 22.4332 22.4333C20.9463 23.9201 18.9297 24.7554 16.827 24.7554C14.7243 24.7554 12.7076 23.9201 11.2208 22.4333C9.73394 20.9464 8.89863 18.9298 8.89863 16.8271C8.89863 14.7243 9.73394 12.7077 11.2208 11.2209ZM26.5137 10.0795C26.6961 9.90735 26.8422 9.7004 26.9432 9.47084C27.0442 9.24128 27.0982 8.99379 27.1018 8.74301C27.1055 8.49224 27.0588 8.24328 26.9645 8.01087C26.8702 7.77847 26.7303 7.56734 26.5529 7.39C26.3756 7.21265 26.1644 7.07269 25.932 6.97841C25.6996 6.88412 25.4507 6.83742 25.1999 6.84108C24.9491 6.84473 24.7016 6.89867 24.4721 6.99969C24.2425 7.10071 24.0356 7.24677 23.8635 7.4292C23.5288 7.78402 23.3455 8.2553 23.3526 8.74301C23.3597 9.23073 23.5566 9.69647 23.9015 10.0414C24.2464 10.3863 24.7122 10.5832 25.1999 10.5903C25.6876 10.5974 26.1589 10.4142 26.5137 10.0795Z" fill="#F8F8F8"/>
</svg>

<svg xmlns="http://www.w3.org/2000/svg" width="34" height="34" fill="none"><path fill="#F8F8F8" fill-rule="evenodd" d="M10.468 1.495c1.645-.076 2.17-.093 6.359-.093 4.19 0 4.714.019 6.358.093s2.765.336 3.747.716a7.6 7.6 0 0 1 2.731 1.781c.785.77 1.391 1.701 1.778 2.73.382.982.642 2.104.718 3.744.076 1.648.093 2.173.093 6.361 0 4.19-.019 4.714-.093 6.36-.074 1.64-.336 2.762-.718 3.743a7.6 7.6 0 0 1-1.778 2.733 7.6 7.6 0 0 1-2.731 1.778c-.982.382-2.104.643-3.744.718-1.647.076-2.171.093-6.361.093s-4.714-.018-6.36-.093c-1.64-.074-2.762-.336-3.743-.718a7.6 7.6 0 0 1-2.733-1.778 7.6 7.6 0 0 1-1.78-2.731c-.38-.982-.64-2.104-.716-3.744-.076-1.648-.093-2.172-.093-6.36 0-4.19.018-4.715.093-6.359.074-1.643.336-2.765.716-3.747a7.6 7.6 0 0 1 1.781-2.731 7.6 7.6 0 0 1 2.73-1.78c.982-.38 2.104-.64 3.744-.716zM23.06 4.27c-1.627-.074-2.115-.09-6.233-.09s-4.606.016-6.233.09c-1.505.069-2.32.32-2.865.532a4.8 4.8 0 0 0-1.774 1.152A4.8 4.8 0 0 0 4.803 7.73c-.212.544-.463 1.36-.532 2.865-.074 1.627-.09 2.115-.09 6.233s.016 4.606.09 6.233c.069 1.505.32 2.32.532 2.865.247.669.64 1.276 1.152 1.774A4.8 4.8 0 0 0 7.73 28.85c.544.212 1.36.463 2.865.532 1.627.074 2.113.09 6.233.09s4.606-.016 6.233-.09c1.505-.069 2.32-.32 2.865-.532a4.8 4.8 0 0 0 1.774-1.152 4.8 4.8 0 0 0 1.152-1.774c.212-.544.463-1.36.532-2.865.074-1.626.09-2.114.09-6.233s-.016-4.606-.09-6.233c-.069-1.505-.32-2.32-.532-2.865A4.8 4.8 0 0 0 27.7 5.955a4.8 4.8 0 0 0-1.774-1.152c-.544-.212-1.36-.463-2.865-.532m-8.203 17.311a5.145 5.145 0 1 0 3.704-9.6 5.146 5.146 0 0 0-3.704 9.6M11.22 11.221a7.928 7.928 0 1 1 11.212 11.212 7.928 7.928 0 0 1-11.212-11.212m15.293-1.142a1.876 1.876 0 1 0-2.575-2.728 1.876 1.876 0 0 0 2.575 2.728" clip-rule="evenodd"/></svg>
